X: 6
T: Skidoo
C: Steve Cooney
Z: velay-b
S: https://thesession.org/tunes/352#setting48749
R: reel
M: 4/4
L: 1/8
K: Amaj
FC (3CCC A2 Bc|AF ~F2 cFBA|GeBG E2 CB,|CGFE FCGC|
AF (3FFF cFBc|Acfg agfe|Bcef g2 (3ggg|gfec BecB|
AF (3FFF cFBc|AcBc AcBA|GeBG E2 CB,|CGFE FCGC|
AF (3FFF cFBc|Acfg agfe|Bcef g2 (3ggg|gfec Befg||
|:a~f3 c~f3|afcf dfed|cFAB cFAB|cFAB c^deg|
fgfe fc'c'b|afgf fBBc|dBFB cAFA|1 BEGE CFfg:|2 BEGE CFAG||

